X: 1
T: Suserl (C)
M: 2+3/4
L: 1/8
M: 2+3/4
L: 1/8
K: C
%%indent 250
"^Intro"\
| "F"[AF][AF] [AF][cA] [BG][AF] \
| "C"[A2F2] [GE][FD] | [E2C2] z2 \
| "G7"[GD][GE] [G2F2] [B2F2] | "C"[c2E2] z2 z2 ||
"A"|: "C"[EC][GE] [GE][FD] | [E2C2] z2 \
| [EC][GE] [GE][EC] [AF][GE] \
| "G7"[G2E2] [FD][EC] | [D2B,2] z2 \
| "F"[AF][AF] [AF][cA] [BG][AF] \
| "C"[A2F2] [GE][FD] | [E2C2]  z2 |
| "G7"[GE][GE] [G2E2] [F2D2] | "C"[E2C2] z2 "fine"z2 :| \
"B"|: "G7"[DB,][FD] [FD][EC] | [D2B,2] z2 \
| [DB,][FD] [FD][DB,] [GE][FD] \
| "C"[EC][GE] [GE][FD] | [E2C2] "d.C."z2 :|
